src/lib/packages/icons/src/assets/filled/two-dumbbell.svg

<svg width="24" height="24" viewBox="0 0 24 24" fill="none" xmlns="http://www.w3.org/2000/svg">
<path d="M13.84 19.5001H8.16C8.06 19.5001 7.97 19.5501 7.91 19.6301L7.3 20.5501C7.11 20.8301 6.8 21.0001 6.47 21.0001H4.50999C3.67999 21.0001 3.00999 20.3301 3.00999 19.5001V16.5001C3.00999 15.6701 3.67999 15.0001 4.50999 15.0001H6.47C6.8 15.0001 7.12 15.1701 7.3 15.4501L7.91 16.3701C7.97 16.4501 8.06 16.5001 8.16 16.5001H13.84C13.94 16.5001 14.03 16.4501 14.09 16.3701L14.7 15.4501C14.89 15.1701 15.2 15.0001 15.53 15.0001H17.49C18.32 15.0001 18.99 15.6701 18.99 16.5001V19.5001C18.99 20.3301 18.32 21.0001 17.49 21.0001H15.52C15.19 21.0001 14.87 20.8301 14.69 20.5501L14.08 19.6301C14.02 19.5501 13.93 19.5001 13.83 19.5001H13.84ZM16.31 8.5601L17.19 9.24011C17.45 9.4401 17.8 9.50009 18.12 9.40009L19.98 8.7701C20.76 8.5001 21.19 7.65009 20.92 6.8701L19.96 4.0301C19.69 3.2501 18.84 2.8201 18.06 3.0901L16.2 3.7201C15.88 3.8301 15.64 4.0901 15.55 4.4101L15.26 5.4801C15.23 5.5801 15.16 5.6501 15.07 5.6901L9.69 7.51009C9.59 7.54009 9.49 7.52011 9.41 7.46011L8.53 6.7801C8.27 6.5801 7.92001 6.5201 7.60001 6.6201L5.74001 7.2501C4.96001 7.5201 4.53 8.37009 4.8 9.15009L5.75999 11.9901C6.02999 12.7701 6.88 13.2001 7.66 12.9301L9.52 12.3001C9.84 12.1901 10.08 11.9301 10.17 11.6101L10.46 10.5401C10.49 10.4401 10.56 10.3701 10.65 10.3301L16.03 8.51009C16.13 8.48009 16.23 8.5001 16.31 8.5601Z" fill="currentColor"/>
</svg>

<svg xmlns="http://www.w3.org/2000/svg" width="24" height="24" fill="none"><path fill="currentColor" d="M13.84 19.5H8.16c-.1 0-.19.05-.25.13l-.61.92c-.19.28-.5.45-.83.45H4.51c-.83 0-1.5-.67-1.5-1.5v-3c0-.83.67-1.5 1.5-1.5h1.96c.33 0 .65.17.83.45l.61.92c.06.08.15.13.25.13h5.68c.1 0 .19-.05.25-.13l.61-.92c.19-.28.5-.45.83-.45h1.96c.83 0 1.5.67 1.5 1.5v3c0 .83-.67 1.5-1.5 1.5h-1.97c-.33 0-.65-.17-.83-.45l-.61-.92a.313.313 0 0 0-.25-.13h.01Zm2.47-10.94.88.68c.26.2.61.26.93.16l1.86-.63c.78-.27 1.21-1.12.94-1.9l-.96-2.84c-.27-.78-1.12-1.21-1.9-.94l-1.86.63c-.32.11-.56.37-.65.69l-.29 1.07c-.03.1-.1.17-.19.21L9.69 7.51c-.1.03-.2.01-.28-.05l-.88-.68c-.26-.2-.61-.26-.93-.16l-1.86.63c-.78.27-1.21 1.12-.94 1.9l.96 2.84c.27.78 1.12 1.21 1.9.94l1.86-.63c.32-.11.56-.37.65-.69l.29-1.07c.03-.1.1-.17.19-.21l5.38-1.82c.1-.03.2-.01.28.05Z"/></svg>
